X:168
T: ES GING AMOL A BETTELSMANN HERAUS
N: Z0167
O: Europa, Mitteleuropa, Deutschland, Kuhlaendchen
R: Erzaehlung, lustige Romanze
M: 2/4
L: 1/16
K: G
D2 | G2BGA2cA | GGBGA2
D2 | G2B2d3B | ddBGA2
A2 | B2d2c3B | d2cBA2
A2 | c2BAc2BA | B2D2G2
B2 | c2BAc2BA | B2D2G2

